SVG_Azure_All/Storage Sync Service.svg

<?xml version="1.0" encoding="UTF-8" standalone="no"?>
<!-- Generated by Microsoft Visio, SVG Export Storage Sync Service.svg Page-1 -->

<svg
   xmlns:dc="http://purl.org/dc/elements/1.1/"
   xmlns:cc="http://creativecommons.org/ns#"
   xmlns:rdf="http://www.w3.org/1999/02/22-rdf-syntax-ns#"
   xmlns:svg="http://www.w3.org/2000/svg"
   xmlns="http://www.w3.org/2000/svg"
   xmlns:sodipodi="http://sodipodi.sourceforge.net/DTD/sodipodi-0.dtd"
   xmlns:inkscape="http://www.inkscape.org/namespaces/inkscape"
   width="0.78736037in"
   height="0.66933429in"
   viewBox="0 0 56.689945 48.192113"
   xml:space="preserve"
   class="st7"
   version="1.1"
   id="svg63"
   sodipodi:docname="Storage Sync Service.svg"
   style="font-size:12px;overflow:visible;color-interpolation-filters:sRGB;fill:none;fill-rule:evenodd;stroke-linecap:square;stroke-miterlimit:3"
   inkscape:version="0.92.5 (2060ec1f9f, 2020-04-08)"><metadata
   id="metadata67"><rdf:RDF><cc:Work
       rdf:about=""><dc:format>image/svg+xml</dc:format><dc:type
         rdf:resource="http://purl.org/dc/dcmitype/StillImage" /></cc:Work></rdf:RDF></metadata><sodipodi:namedview
   pagecolor="#ffffff"
   bordercolor="#666666"
   borderopacity="1"
   objecttolerance="10"
   gridtolerance="10"
   guidetolerance="10"
   inkscape:pageopacity="0"
   inkscape:pageshadow="2"
   inkscape:window-width="640"
   inkscape:window-height="480"
   id="namedview65"
   showgrid="false"
   inkscape:zoom="2.0339329"
   inkscape:cx="37.795243"
   inkscape:cy="12.656655"
   inkscape:window-x="0"
   inkscape:window-y="0"
   inkscape:window-maximized="0"
   inkscape:current-layer="svg63" />
	<style
   type="text/css"
   id="style2">
	<![CDATA[
		.st1 {fill:url(#grad0-6);stroke:none;stroke-linecap:butt;stroke-width:0.75}
		.st2 {fill:url(#grad0-10);stroke:none;stroke-linecap:butt;stroke-width:0.75}
		.st3 {fill:#ffffff;stroke:none;stroke-linecap:butt;stroke-width:0.75}
		.st4 {fill:#003067;stroke:none;stroke-linecap:butt;stroke-width:0.75}
		.st5 {fill:#50e6ff;stroke:none;stroke-linecap:butt;stroke-width:0.75}
		.st6 {fill:#0078d4;stroke:none;stroke-linecap:butt;stroke-width:0.75}
		.st7 {fill:none;fill-rule:evenodd;font-size:12px;overflow:visible;stroke-linecap:square;stroke-miterlimit:3}
	]]>
	</style>

	<defs
   id="Patterns_And_Gradients">
		<linearGradient
   id="grad0-6"
   x1="0"
   y1="54.24432"
   x2="48.170444"
   y2="54.24432"
   gradientTransform="scale(1.1768627,0.84971677)"
   gradientUnits="userSpaceOnUse">
			<stop
   offset="0"
   stop-color="#0078d4"
   stop-opacity="1"
   id="stop4" />
			<stop
   offset="0.14"
   stop-color="#077bd6"
   stop-opacity="1"
   id="stop6" />
			<stop
   offset="0.34"
   stop-color="#1a83db"
   stop-opacity="1"
   id="stop8" />
			<stop
   offset="0.59"
   stop-color="#3990e4"
   stop-opacity="1"
   id="stop10" />
			<stop
   offset="0.82"
   stop-color="#5ea0ef"
   stop-opacity="1"
   id="stop12" />
		</linearGradient>
		<linearGradient
   id="grad0-10"
   x1="0"
   y1="40.900954"
   x2="25.083493"
   y2="40.900954"
   gradientTransform="scale(0.75826759,1.3187956)"
   gradientUnits="userSpaceOnUse">
			<stop
   offset="0"
   stop-color="#949494"
   stop-opacity="1"
   id="stop15" />
			<stop
   offset="0.41"
   stop-color="#c1c1c1"
   stop-opacity="1"
   id="stop17" />
			<stop
   offset="1"
   stop-color="#ffffff"
   stop-opacity="1"
   id="stop19" />
		</linearGradient>
	</defs>
	<g
   id="g61"
   transform="translate(-5.669324,-4.812189)">
		<title
   id="title23">Page-1</title>
		<g
   id="group850-1"
   transform="translate(5.66929,-34.0157)">
			<title
   id="title25">Storage Sync Service</title>
			<g
   id="group851-2">
				<title
   id="title27">layer1</title>
				<g
   id="shape852-3"
   transform="translate(0,-7.26442)">
					<title
   id="title29">path4</title>
					<path
   d="M 56.69,74.19 A 12.7877,13.0175 -180 0 0 45.64,61.71 16.0636,16.3523 -180 0 0 29.1,46.1 16.5356,16.8327 -180 0 0 13.35,57.03 15.118,15.3897 -180 0 0 0,71.91 15.4327,15.71 -180 0 0 15.97,87.01 h 27.24 a 4.6105,4.69334 -180 0 0 0.7,0 12.9135,13.1456 -180 0 0 12.78,-12.82 z"
   class="st1"
   id="path31"
   inkscape:connector-curvature="0"
   style="fill:url(#grad0-6);stroke:none;stroke-width:0.75;stroke-linecap:butt" />
				</g>
				<g
   id="shape853-7"
   transform="translate(20.7877)">
					<title
   id="title34">path6</title>
					<path
   d="M 17.42,53.94 H 0 v 31.42 a 1.63777,1.6672 -180 0 0 1.64,1.66 h 15.75 a 1.63777,1.6672 -180 0 0 1.63,-1.66 V 55.6 a 1.63738,1.6668 -180 0 0 -1.6,-1.66 z"
   class="st2"
   id="path36"
   inkscape:connector-curvature="0"
   style="fill:url(#grad0-10);stroke:none;stroke-width:0.75;stroke-linecap:butt" />
				</g>
				<g
   id="shape854-11"
   transform="translate(10.4386,-24.0005)">
					<title
   id="title39">path8</title>
					<path
   d="M 7.27,77.94 A 0.283465,0.288558 0 0 1 6.95493,77.619474 L 6.96,73.9 A 0.346084,0.352302 -180 0 0 6.559594,73.597364 C 6.49,73.6 6.44,73.63 6.39,73.67 l -6.3,6.41 a 0.314675,0.320329 -180 0 0 0,0.448823 L 6.39,86.95 a 0.345688,0.3519 -180 0 0 0.361491,0.05047 0.347071,0.353308 -180 0 0 0.205438,-0.307051 L 6.96,82.84 A 0.314675,0.320329 0 0 1 7.275071,82.519474 L 10.42,82.52 v -4.58 z"
   class="st3"
   id="path41"
   inkscape:connector-curvature="0"
   style="fill:#ffffff;stroke:none;stroke-width:0.75;stroke-linecap:butt" />
				</g>
				<g
   id="shape855-13"
   transform="translate(23.5906,-19.3973)">
					<title
   id="title44">path10</title>
					<path
   d="m 0,84.94 a 2.04549,2.08224 0 0 1 0.6,-1.51 2.04845,2.08526 0 0 1 1.48,-0.61 h 9.45 a 2.07927,2.11663 0 0 1 2.08,2.12 2.07927,2.11663 0 0 1 -2.08,2.08 H 2.08 A 2.04924,2.08606 0 0 1 0.61,86.42 2.04628,2.08305 0 0 1 0,84.94 Z m 0,-6.28 a 2.07808,2.11542 0 0 1 2.08,-2.12 h 9.45 a 2.11028,2.1482 0 0 1 2.08,2.12 2.11028,2.1482 0 0 1 -2.08,2.11 H 2.08 A 2.07887,2.11623 0 0 1 0,78.66 Z"
   class="st4"
   id="path46"
   inkscape:connector-curvature="0"
   style="fill:#003067;stroke:none;stroke-width:0.75;stroke-linecap:butt" />
				</g>
				<g
   id="shape856-15"
   transform="translate(24.3486,-20.0706)">
					<title
   id="title49">path12</title>
					<path
   d="m 1.38,80.74 a 1.38591,1.41082 -180 1 0 0,-2.82 1.38591,1.41082 -180 0 0 0,2.82 z m 0,6.28 a 1.38572,1.41062 -180 1 0 0,-2.82 1.38572,1.41062 -180 0 0 0,2.82 z"
   class="st5"
   id="path51"
   inkscape:connector-curvature="0"
   style="fill:#50e6ff;stroke:none;stroke-width:0.75;stroke-linecap:butt" />
				</g>
				<g
   id="shape857-17"
   transform="translate(20.6615,-2.90373)">
					<title
   id="title54">path14</title>
					<path
   d="m 10.46,80.53 -6.3,6.42 A 0.345491,0.351699 0 0 1 3.798508,87.000465 0.347269,0.353509 0 0 1 3.593071,86.693406 L 3.59,82.91 A 0.315268,0.320933 -180 0 0 3.275127,82.589269 L 0,82.59 V 78 h 3.37 a 0.285045,0.290167 -180 0 0 0.233882,-0.08245 0.283069,0.288156 -180 0 0 0.08099,-0.238286 L 3.69,73.96 A 0.346479,0.352704 0 0 1 4.25693,73.735592 L 10.55,80.15 c 0.03,0.06 0.04,0.14 0.02,0.21 a 0.313885,0.319525 0 0 1 -0.112595,0.175744 z"
   class="st6"
   id="path56"
   inkscape:connector-curvature="0"
   style="fill:#0078d4;stroke:none;stroke-width:0.75;stroke-linecap:butt" />
				</g>
			</g>
		</g>
	</g>
</svg>

<?xml version="1.0" encoding="UTF-8" standalone="no"?>
<!DOCTYPE svg PUBLIC "-//W3C//DTD SVG 1.1//EN" "http://www.w3.org/Graphics/SVG/1.1/DTD/svg11.dtd">
<!-- Generated by Microsoft Visio, SVG Export Storage Sync Service.svg Page-1 -->
<svg xmlns="http://www.w3.org/2000/svg" xmlns:xlink="http://www.w3.org/1999/xlink" xmlns:ev="http://www.w3.org/2001/xml-events"
		width="0.944882in" height="1.20866in" viewBox="0 0 68.0315 87.0236" xml:space="preserve" color-interpolation-filters="sRGB"
		class="st7">
	<style type="text/css">
	<![CDATA[
		.st1 {fill:url(#grad0-6);stroke:none;stroke-linecap:butt;stroke-width:0.75}
		.st2 {fill:url(#grad0-10);stroke:none;stroke-linecap:butt;stroke-width:0.75}
		.st3 {fill:#ffffff;stroke:none;stroke-linecap:butt;stroke-width:0.75}
		.st4 {fill:#003067;stroke:none;stroke-linecap:butt;stroke-width:0.75}
		.st5 {fill:#50e6ff;stroke:none;stroke-linecap:butt;stroke-width:0.75}
		.st6 {fill:#0078d4;stroke:none;stroke-linecap:butt;stroke-width:0.75}
		.st7 {fill:none;fill-rule:evenodd;font-size:12px;overflow:visible;stroke-linecap:square;stroke-miterlimit:3}
	]]>
	</style>

	<defs id="Patterns_And_Gradients">
		<linearGradient id="grad0-6" x1="0" y1="0" x2="1" y2="0" gradientTransform="rotate(-90 0.5 0.5)">
			<stop offset="0" stop-color="#0078d4" stop-opacity="1"/>
			<stop offset="0.14" stop-color="#077bd6" stop-opacity="1"/>
			<stop offset="0.34" stop-color="#1a83db" stop-opacity="1"/>
			<stop offset="0.59" stop-color="#3990e4" stop-opacity="1"/>
			<stop offset="0.82" stop-color="#5ea0ef" stop-opacity="1"/>
		</linearGradient>
		<linearGradient id="grad0-10" x1="0" y1="0" x2="1" y2="0" gradientTransform="rotate(-90 0.5 0.5)">
			<stop offset="0" stop-color="#949494" stop-opacity="1"/>
			<stop offset="0.41" stop-color="#c1c1c1" stop-opacity="1"/>
			<stop offset="1" stop-color="#ffffff" stop-opacity="1"/>
		</linearGradient>
	</defs>
	<g>
		<title>Page-1</title>
		<g id="group835-1" transform="translate(5.66929,-34.0157)">
			<title>Storage Sync Service</title>
			<g id="group836-2">
				<title>layer1</title>
				<g id="shape837-3" transform="translate(0,-7.26442)">
					<title>path4</title>
					<path d="M56.69 74.19 A12.7877 13.0175 -180 0 0 45.64 61.71 A16.0636 16.3523 -180 0 0 29.1 46.1 A16.5356 16.8327
								 -180 0 0 13.35 57.03 A15.118 15.3897 -180 0 0 -0 71.91 A15.4327 15.71 -180 0 0 15.97 87.01 L43.21
								 87.01 A4.6105 4.69334 -180 0 0 43.91 87.01 A12.9135 13.1456 -180 0 0 56.69 74.19 Z" class="st1"/>
				</g>
				<g id="shape838-7" transform="translate(20.7877,-2.41585E-13)">
					<title>path6</title>
					<path d="M17.42 53.94 L0 53.94 L0 85.36 A1.63777 1.6672 -180 0 0 1.64 87.02 L17.39 87.02 A1.63777 1.6672 -180
								 0 0 19.02 85.36 L19.02 55.6 A1.63738 1.6668 -180 0 0 17.42 53.94 Z" class="st2"/>
				</g>
				<g id="shape839-11" transform="translate(10.4386,-24.0005)">
					<title>path8</title>
					<path d="M7.27 77.94 a0.283465 0.288558 0 0 1 -0.31507 -0.320526 L6.96 73.9 a0.346084 0.352302 -180 0 0 -0.400406
								 -0.302636 C6.49 73.6 6.44 73.63 6.39 73.67 L0.09 80.08 a0.314675 0.320329 -180 0 0 5.93969E-15 0.448823
								 L6.39 86.95 a0.345688 0.3519 -180 0 0 0.361491 0.0504646 a0.347071 0.353308 -180 0 0 0.205438 -0.307051
								 L6.96 82.84 a0.314675 0.320329 0 0 1 0.315071 -0.320526 L10.42 82.52 L10.42 77.94 L7.27 77.94 Z"
							class="st3"/>
				</g>
				<g id="shape840-13" transform="translate(23.5906,-19.3973)">
					<title>path10</title>
					<path d="M0 84.94 A2.04549 2.08224 0 0 1 0.6 83.43 A2.04845 2.08526 0 0 1 2.08 82.82 L11.53 82.82 A2.07927 2.11663
								 0 0 1 13.61 84.94 A2.07927 2.11663 0 0 1 11.53 87.02 L2.08 87.02 A2.04924 2.08606 0 0 1 0.61 86.42
								 A2.04628 2.08305 0 0 1 0 84.94 ZM0 78.66 A2.07808 2.11542 0 0 1 2.08 76.54 L11.53 76.54 A2.11028
								 2.1482 0 0 1 13.61 78.66 A2.11028 2.1482 0 0 1 11.53 80.77 L2.08 80.77 A2.07887 2.11623 0 0 1 0
								 78.66 Z" class="st4"/>
				</g>
				<g id="shape841-15" transform="translate(24.3486,-20.0706)">
					<title>path12</title>
					<path d="M1.38 80.74 A1.38591 1.41082 -180 1 0 1.38 77.92 A1.38591 1.41082 -180 0 0 1.38 80.74 ZM1.38 87.02 A1.38572
								 1.41062 -180 1 0 1.38 84.2 A1.38572 1.41062 -180 0 0 1.38 87.02 Z" class="st5"/>
				</g>
				<g id="shape842-17" transform="translate(20.6615,-2.90373)">
					<title>path14</title>
					<path d="M10.46 80.53 L4.16 86.95 a0.345491 0.351699 0 0 1 -0.361492 0.0504646 a0.347269 0.353509 0 0 1 -0.205437
								 -0.307059 L3.59 82.91 a0.315268 0.320933 -180 0 0 -0.314873 -0.320731 L0 82.59 L0 78 L3.37 78 a0.285045
								 0.290167 -180 0 0 0.233882 -0.0824458 a0.283069 0.288156 -180 0 0 0.0809897 -0.238286 L3.69 73.96
								 a0.346479 0.352704 0 0 1 0.56693 -0.224408 L10.55 80.15 C10.58 80.21 10.59 80.29 10.57 80.36 a0.313885
								 0.319525 0 0 1 -0.112595 0.175744 L10.46 80.53 Z" class="st6"/>
				</g>
			</g>
		</g>
	</g>
</svg>
